icons/svg/icons8/leaf3.svg

<svg width="26" height="26" viewBox="0 0 26 26" fill="none" xmlns="http://www.w3.org/2000/svg">
<g clip-path="url(#clip0)">
<path d="M12.3211 9.58001C11.7161 9.97501 10.0151 6.26701 7.1921 6.35001C7.7321 7.30501 7.8491 8.09701 7.3621 8.64601C7.0141 9.03801 4.5521 7.39701 3.1071 7.39701C3.2631 9.03701 4.6071 11.208 4.4741 11.651C4.2441 12.412 3.2891 12.661 2.1261 12.868C3.7821 15.635 7.4021 16.222 7.3991 16.937C7.3931 18.052 5.2401 17.144 4.6171 18.597C6.5691 19.386 4.9911 19.925 4.6401 21.36C6.4441 20.756 7.2331 21.047 7.4361 21.429C2.4471 24.9 1.1451 24.14 0.494099 24.358C-0.384901 24.652 -0.0479014 25.985 1.1451 25.876C2.8791 25.552 6.7861 22.947 7.8711 22.08C8.4901 21.586 10.5911 19.922 12.7671 17.041C12.9191 16.841 12.1731 14.903 9.7241 13.159C11.3431 13.45 13.5421 15.966 13.7031 15.728C14.6841 14.265 15.6411 12.551 16.4411 10.582C16.0781 11.958 15.3691 13.9 14.7571 15.287C14.6891 15.439 17.2181 14.73 19.1771 15.891C16.0051 15.028 13.8681 16.83 13.7811 17.003C12.7551 19.054 12.0481 19.947 9.5451 22.843C11.7611 23.783 11.2471 24.985 11.3321 25.714C13.0911 24.728 12.8331 23.098 13.7621 23.087C14.5461 23.078 14.7431 23.719 15.2801 24.9C16.8671 22.669 16.1811 21.338 16.1821 20.55C17.1921 20.358 18.8881 20.996 21.2551 23.178C21.4871 22.436 22.2751 21.23 21.0231 19.881C21.5151 19.551 23.8551 20.252 25.8511 20.623C25.7121 18.07 23.3391 17.368 23.1591 16.493C23.6291 16.215 24.1341 15.657 25.0151 15.75C23.8081 13.336 19.9841 13.295 19.7241 12.803C19.4641 12.311 22.1761 10.398 24.0061 6.41201C22.8971 6.21501 22.3531 6.01801 20.5431 6.25501C20.5431 4.68101 20.3861 2.39901 19.1381 0.57901C17.5611 1.79201 17.5001 3.08901 16.0231 4.14801C15.3981 3.95601 14.5331 2.70601 13.0801 2.32601C12.7051 4.68601 12.9271 9.18601 12.3211 9.58001Z" fill="#333333"/>
</g>
<defs>
<clipPath id="clip0">
<rect width="26" height="26" fill="white"/>
</clipPath>
</defs>
</svg>

<?xml version="1.0" encoding="utf-8"?>
<!-- Generator: Adobe Illustrator 15.0.0, SVG Export Plug-In . SVG Version: 6.00 Build 0)  -->
<!DOCTYPE svg PUBLIC "-//W3C//DTD SVG 1.1//EN" "http://www.w3.org/Graphics/SVG/1.1/DTD/svg11.dtd">
<svg version="1.1" id="Layer_1" xmlns="http://www.w3.org/2000/svg" xmlns:xlink="http://www.w3.org/1999/xlink" x="0px" y="0px"
	 width="26px" height="26px" viewBox="0 0 26 26" enable-background="new 0 0 26 26" xml:space="preserve">
<rect fill="none" width="26" height="26"/>
<path fill="#333333" d="M12.321,9.58c-0.605,0.395-2.306-3.313-5.129-3.23c0.54,0.955,0.657,1.747,0.17,2.296
	c-0.348,0.392-2.81-1.249-4.255-1.249c0.156,1.64,1.5,3.811,1.367,4.254c-0.23,0.761-1.185,1.01-2.348,1.217
	c1.656,2.767,5.276,3.354,5.273,4.069c-0.006,1.115-2.159,0.207-2.782,1.66c1.952,0.789,0.374,1.328,0.023,2.763
	c1.804-0.604,2.593-0.313,2.796,0.069c-4.989,3.471-6.291,2.711-6.942,2.929c-0.879,0.294-0.542,1.627,0.651,1.518
	c1.734-0.324,5.641-2.929,6.726-3.796c0.619-0.494,2.72-2.158,4.896-5.039c0.152-0.2-0.594-2.138-3.043-3.882
	c1.619,0.291,3.818,2.807,3.979,2.569c0.981-1.463,1.938-3.177,2.738-5.146c-0.363,1.376-1.072,3.318-1.684,4.705
	c-0.068,0.152,2.461-0.557,4.42,0.604c-3.172-0.863-5.309,0.939-5.396,1.112c-1.026,2.051-1.733,2.944-4.236,5.84
	c2.216,0.94,1.702,2.142,1.787,2.871c1.759-0.986,1.501-2.616,2.43-2.627c0.784-0.009,0.981,0.632,1.518,1.813
	c1.587-2.231,0.901-3.562,0.902-4.35c1.01-0.192,2.706,0.446,5.073,2.628c0.232-0.742,1.02-1.948-0.232-3.297
	c0.492-0.33,2.832,0.371,4.828,0.742c-0.139-2.553-2.512-3.255-2.692-4.13c0.47-0.278,0.975-0.836,1.856-0.743
	c-1.207-2.414-5.031-2.455-5.291-2.947s2.452-2.405,4.282-6.391c-1.109-0.197-1.653-0.394-3.463-0.157
	c0-1.574-0.157-3.856-1.405-5.676c-1.577,1.213-1.638,2.51-3.115,3.569c-0.625-0.192-1.49-1.442-2.943-1.822
	C12.705,4.686,12.927,9.186,12.321,9.58z"/>
</svg>
